Papirus/16x16/apps/tuxedo-webfai-creator.svg

<svg width="16" height="16" version="1.1" xmlns="http://www.w3.org/2000/svg">
 <rect x="1.999998" y="3.9999974" width="11.999993" height="11.999993" ry=".82300817" style="fill:#c2352a"/>
 <path d="m6.64271 6.9509302c0 0.2984296 1.83156 2.0226718 2.15839 2.042224 0.13584 0.00813 0.27792-0.04413 0.36018-0.1138496 0.14436-0.1225995 0.23247-0.3562253 0.19548-0.5177692-0.02071-0.0902827-0.16497-0.2703977-0.40941-0.5110415l-0.37701-0.3714227 0.32409 0.0303045c1.32987 0.1245017 2.48487 1.0735817 2.86647 2.3543993 0.1466 0.49204 0.1474 1.229179 0.0019 1.716934-0.4273 1.433131-1.7246 2.418152-3.26254 2.418152-1.79986 0-3.21533-1.512121-3.37393-3.274026-0.00515-0.431191-0.14199-0.730541-0.56882-0.730541-0.39911 0-0.52617 0.329484-0.55374 0.65936-0.02752 0.329775 0.09904 1.102755 0.26489 1.535848 0.54489 1.423219 1.80528 2.464704 3.34852 2.766548 0.20763 0.04055 0.54513 0.04395 0.88146 0.04395 0.32094 0 0.6408-0.0015 0.846-0.03915 3.14126-0.57595 4.67346-4.0473 2.91416-6.6017874-0.7407-1.0754038-2.0169-1.8100598-3.3287-1.9167312l-0.33689-0.0273011 0.36936-0.3665972c0.27004-0.268025 0.38695-0.4068229 0.39982-0.5231353 0-0.3761881-0.32994-0.5252978-0.56129-0.5252978-0.38572 0.0312856-1.97972 1.3888105-2.15839 1.9509302z" style="fill:#ececec"/>
 <rect x="4.999996" y="-1.200011e-7" width="5.9999963" height="3.9999976" style="fill:#b3b3b3"/>
 <path d="m6 0.999999h1v2.000001h-1z" style="fill:#666666"/>
 <path d="m8.99999 0.999999h1v2.000001h-1z" style="fill:#666666"/>
</svg>

<svg xmlns="http://www.w3.org/2000/svg" width="16" height="16" version="1.1">
 <rect style="fill:#b3b3b3" width="6" height="5" x="5" y="0"/>
 <rect style="fill:#c2352a" width="12" height="12" x="2" y="4" ry=".823"/>
 <path style="fill:#ececec" d="M 6.6427,6.9509 C 6.6427,7.2494 8.4743,8.9736 8.8011,8.9932 8.9369,9.0013 9.079,8.949 9.1613,8.8793 9.3056,8.7567 9.3937,8.5231 9.3568,8.3615 9.3361,8.2713 9.1918,8.0911 8.9474,7.8505 L 8.5703,7.4791 8.8944,7.5094 C 10.224,7.6339 11.379,8.583 11.761,9.8638 11.907,10.356 11.908,11.093 11.763,11.581 11.335,13.014 10.038,13.999 8.5003,13.999 6.7004,13.999 5.2849,12.487 5.1263,10.725 5.1212,10.294 4.9843,9.9943 4.5575,9.9943 4.1584,9.9943 4.0313,10.324 4.0038,10.654 3.9762,10.983 4.1028,11.756 4.2687,12.19 4.8135,13.613 6.0739,14.654 7.6172,14.956 7.8248,14.997 8.1623,15 8.4986,15 8.8196,15 9.1394,14.998 9.3446,14.961 12.486,14.385 14.018,10.914 12.259,8.3591 11.518,7.2837 10.242,6.549 8.9301,6.4423 L 8.5932,6.415 8.9626,6.0484 C 9.2326,5.7804 9.3495,5.6416 9.3624,5.5253 9.3624,5.1491 9.0325,5 8.8011,5 8.4154,5.0313 6.8214,6.3888 6.6427,6.9509 Z"/>
 <path style="fill:#666666" d="M 9,1 H 10 V 3 H 9 Z M 6,1 H 7 V 3 H 6 Z"/>
</svg>
